assets/image/instagram.svg

<svg width="42" height="42" viewBox="0 0 42 42" fill="none" xmlns="http://www.w3.org/2000/svg">
<rect x="0.5" y="-0.5" width="41.0045" height="41" transform="matrix(1 0 0 -1 -0.00669861 41)" fill="white"/>
<rect x="0.5" y="-0.5" width="41.0045" height="41" transform="matrix(1 0 0 -1 -0.00669861 41)" stroke="#18B5DC"/>
<path d="M20.9978 26.1277C18.1594 26.1277 15.87 23.8383 15.87 21C15.87 18.1617 18.1594 15.8723 20.9978 15.8723C23.8361 15.8723 26.1255 18.1617 26.1255 21C26.1255 23.8383 23.8361 26.1277 20.9978 26.1277ZM20.9978 17.6663C19.1636 17.6663 17.6641 19.1613 17.6641 21C17.6641 22.8387 19.1591 24.3337 20.9978 24.3337C22.8364 24.3337 24.3315 22.8387 24.3315 21C24.3315 19.1613 22.832 17.6663 20.9978 17.6663ZM27.5313 26.3375C27.5313 25.6725 26.9958 25.1415 26.3353 25.1415C25.6703 25.1415 25.1392 25.677 25.1392 26.3375C25.1392 26.998 25.6748 27.5335 26.3353 27.5335C26.9958 27.5335 27.5313 26.998 27.5313 26.3375ZM30.9275 25.1236C30.8516 26.7258 30.4857 28.1449 29.3119 29.3142C28.1427 30.4834 26.7235 30.8494 25.1214 30.9297C23.4702 31.0234 18.5209 31.0234 16.8697 30.9297C15.272 30.8538 13.8528 30.4879 12.6791 29.3186C11.5054 28.1494 11.1439 26.7302 11.0636 25.1281C10.9699 23.4768 10.9699 18.5276 11.0636 16.8764C11.1395 15.2742 11.5054 13.8551 12.6791 12.6858C13.8528 11.5166 15.2675 11.1506 16.8697 11.0703C18.5209 10.9766 23.4702 10.9766 25.1214 11.0703C26.7235 11.1462 28.1427 11.5121 29.3119 12.6858C30.4812 13.8551 30.8471 15.2742 30.9275 16.8764C31.0212 18.5276 31.0212 23.4724 30.9275 25.1236ZM28.7943 15.1047C28.4462 14.2299 27.7723 13.5561 26.8931 13.2035C25.5766 12.6814 22.4526 12.8019 20.9978 12.8019C19.5429 12.8019 16.4145 12.6858 15.1024 13.2035C14.2277 13.5516 13.5538 14.2255 13.2013 15.1047C12.6791 16.4212 12.7996 19.5451 12.7996 21C12.7996 22.4549 12.6836 25.5833 13.2013 26.8953C13.5494 27.7701 14.2232 28.4439 15.1024 28.7965C16.4189 29.3186 19.5429 29.1981 20.9978 29.1981C22.4526 29.1981 25.5811 29.3142 26.8931 28.7965C27.7678 28.4484 28.4417 27.7745 28.7943 26.8953C29.3164 25.5788 29.1959 22.4549 29.1959 21C29.1959 19.5451 29.3164 16.4167 28.7943 15.1047Z" fill="#18B5DC"/>
</svg>

<svg xmlns="http://www.w3.org/2000/svg" width="42" height="42" fill="none"><path fill="#fff" d="M.493 41.5h41.005V.5H.493z"/><path stroke="#18B5DC" d="M.493 41.5h41.005V.5H.493z"/><path fill="#18B5DC" d="M20.998 26.128A5.12 5.12 0 0 1 15.87 21a5.12 5.12 0 0 1 5.128-5.128A5.12 5.12 0 0 1 26.125 21a5.12 5.12 0 0 1-5.127 5.128Zm0-8.462A3.34 3.34 0 0 0 17.664 21a3.337 3.337 0 0 0 3.334 3.334A3.337 3.337 0 0 0 24.33 21a3.34 3.34 0 0 0-3.333-3.334Zm6.533 8.671c0-.665-.535-1.195-1.196-1.195a1.196 1.196 0 1 0 1.196 1.196Zm3.396-1.213c-.075 1.602-.441 3.02-1.615 4.19-1.17 1.17-2.588 1.535-4.19 1.616-1.652.093-6.601.093-8.252 0-1.598-.076-3.017-.442-4.19-1.611-1.175-1.17-1.536-2.589-1.616-4.19-.094-1.652-.094-6.601 0-8.253.075-1.602.441-3.02 1.615-4.19 1.174-1.17 2.588-1.535 4.19-1.616 1.652-.093 6.601-.093 8.252 0 1.603.076 3.022.442 4.19 1.616 1.17 1.17 1.536 2.588 1.616 4.19.094 1.652.094 6.596 0 8.248Zm-2.133-10.02a3.375 3.375 0 0 0-1.9-1.9c-1.317-.523-4.441-.402-5.896-.402s-4.584-.116-5.896.402a3.375 3.375 0 0 0-1.9 1.9c-.523 1.317-.402 4.441-.402 5.896s-.116 4.583.401 5.895a3.375 3.375 0 0 0 1.901 1.902c1.317.522 4.44.401 5.896.401 1.455 0 4.583.116 5.895-.401a3.375 3.375 0 0 0 1.901-1.902c.522-1.316.402-4.44.402-5.895 0-1.455.12-4.583-.402-5.895Z"/></svg>
